X: 1
T: Angus Ronald's Big Tune
C: trad. Cape Breton
%D:
R: strathspey
S: Fiddle Hell Online 2022-4-7 handout for Andrea Beaton workshop
Z: 2022 John Chambers <jc:trillian.mit.edu>
M: 4/4
L: 1/16
K: A
d |\
ce3 A3d c3A A3d | ce3 A3c B3F F3d |\
cA3 A3F E3C E3d | c3A BcdB c3A A3 :|
B, |\
A,4 ag3 f4 ec3 | d3B c3A B3F FA3 |\
A,4 ag3 f4 e3d | c3A BcdB c3A A3 ||
B, |\
A,4 ag3 f4 ec3 | d3B c3A B3F FA3 |\
E3D E3F | A3G A3B | ce3 B3d c3A A3 |]
